packages/foundations/assets/icons/functional/images/maps/parking_20_filled.svg

<svg width="20" height="20" viewBox="0 0 20 20" fill="none" xmlns="http://www.w3.org/2000/svg">
<g clip-path="url(#clip0_2213_5307)">
<path fill-rule="evenodd" clip-rule="evenodd" d="M16 2C17.1046 2 18 2.89543 18 4V16C18 17.1046 17.1046 18 16 18H4C2.89543 18 2 17.1046 2 16V4C2 2.89543 2.89543 2 4 2H16ZM9.1324 13.0599L9.13234 10.9404C9.54411 10.9931 9.93281 11.0194 10.2984 11.0194C11.2664 11.0194 12.0034 10.8031 12.5094 10.3704C13.0154 9.93776 13.2684 9.30709 13.2684 8.47842C13.2684 7.67909 13.0246 7.06676 12.5369 6.64142C12.0493 6.21609 11.3471 6.00342 10.4304 6.00342H8.00143C7.58721 6.00342 7.25143 6.33921 7.25143 6.75342V13.0599C7.25143 13.5793 7.6725 14.0004 8.19193 14.0004C8.71134 14.0004 9.1324 13.5793 9.1324 13.0599C9.1324 13.0599 9.1324 13.0599 9.1324 13.0599ZM10.1334 9.80398C9.92809 9.80398 9.24055 9.7621 9.13234 9.74098C9.13234 9.02896 9.13234 8.26162 9.13234 7.43898H10.2654C10.6845 7.43898 10.9833 7.52698 11.1619 7.70298C11.3416 7.87898 11.4314 8.17231 11.4314 8.58298C11.4314 9.01564 11.3306 9.32731 11.1289 9.51798C10.9273 9.70864 10.5954 9.80398 10.1334 9.80398Z" fill="#1A1C1F"/>
</g>
<defs>
<clipPath id="clip0_2213_5307">
<rect width="20" height="20" fill="white"/>
</clipPath>
</defs>
</svg>

<svg xmlns="http://www.w3.org/2000/svg" width="20" height="20" fill="none"><g clip-path="url(#a)"><path fill="#1A1C1F" fill-rule="evenodd" d="M16 2a2 2 0 0 1 2 2v12a2 2 0 0 1-2 2H4a2 2 0 0 1-2-2V4a2 2 0 0 1 2-2zM9.132 13.06v-2.12q.618.08 1.166.08 1.452 0 2.211-.65.76-.648.76-1.892 0-1.198-.732-1.837-.732-.638-2.107-.638H8.001a.75.75 0 0 0-.75.75v6.307a.94.94 0 0 0 1.881 0m1.001-3.256c-.205 0-.892-.042-1-.063V7.439h1.132q.63 0 .897.264.27.264.27.88 0 .649-.303.935-.303.285-.996.286" clip-rule="evenodd"/></g><defs><clipPath id="a"><path fill="#fff" d="M0 0h20v20H0z"/></clipPath></defs></svg>
